build/system/ArrowsVerticalSolid.svg

<svg xmlns="http://www.w3.org/2000/svg" fill="none" viewBox="0 0 24 24" focusable="false"><path d="M0 0H24V24H0z"/><path fill="#74767B" fill-rule="evenodd" d="M3 12C3 16.9706 7.02944 21 12 21C16.9706 21 21 16.9706 21 12C21 7.02944 16.9706 3 12 3C7.02944 3 3 7.02944 3 12ZM11.8232 13.1328C11.9632 13.2628 12.0332 13.4328 12.0332 13.6128C12.0332 13.7728 11.9832 13.9228 11.8632 14.0528L9.28769 16.7628C9.00769 17.0728 8.52769 17.0728 8.24769 16.7628L5.7832 14.0528C5.5432 13.7828 5.5632 13.3728 5.82319 13.1328C6.0932 12.8928 6.5032 12.9028 6.7432 13.1728L8.11769 14.7234C8.11769 12.8744 8.12165 12.2308 8.12636 11.4659C8.13021 10.841 8.13456 10.1348 8.13765 8.6242C8.13838 8.26566 8.42922 7.97534 8.78776 7.97534C9.14719 7.97534 9.4384 8.26704 9.43779 8.62647L9.42072 14.7273L10.9032 13.1728C11.1432 12.9128 11.5532 12.8928 11.8232 13.1328ZM18.1717 10.8587C18.3117 10.7287 18.3817 10.5587 18.3817 10.3787C18.3817 10.2187 18.3317 10.0687 18.2117 9.93874L15.6362 7.22874C15.3562 6.91874 14.8762 6.91874 14.5962 7.22874L12.1317 9.93874C11.8917 10.2087 11.9117 10.6187 12.1717 10.8587C12.4417 11.0987 12.8517 11.0887 13.0917 10.8187L14.4662 9.26818C14.4662 11.0858 14.4703 11.731 14.4751 12.4718C14.4791 13.1009 14.4836 13.7989 14.4863 15.3425C14.4869 15.7011 14.7778 15.9914 15.1363 15.9914C15.4958 15.9914 15.787 15.6997 15.7864 15.3403L15.7692 9.26429L17.2517 10.8187C17.4917 11.0787 17.9017 11.0987 18.1717 10.8587Z"/></svg>

<svg xmlns="http://www.w3.org/2000/svg" fill="none" viewBox="0 0 24 24" focusable="false"><path fill="#74767B" fill-rule="evenodd" d="M3 12c0 4.97 4.02 9 9 9a9 9 0 0 0 9-9c0-4.98-4.03-9-9-9-4.98 0-9 4.02-9 9m8.82 1.13c.14.13.21.3.21.48 0 .16-.05.31-.17.44l-2.58 2.71c-.28.31-.76.31-1.04 0l-2.46-2.71a.66.66 0 0 1 .04-.92.65.65 0 0 1 .92.04l1.37 1.55c0-1.85.01-2.49.01-3.26.01-.62.01-1.33.01-2.84 0-.36.29-.65.65-.65s.65.29.65.65l-.01 6.1 1.48-1.55c.24-.26.65-.28.92-.04m6.35-2.28c.14-.13.21-.3.21-.48 0-.16-.05-.31-.17-.44l-2.58-2.71a.7.7 0 0 0-1.04 0l-2.46 2.71c-.24.27-.22.68.04.92.27.24.68.23.92-.04l1.37-1.55c0 1.82.01 2.47.01 3.21 0 .63.01 1.32.01 2.87 0 .36.29.65.65.65s.65-.3.65-.65l-.02-6.08 1.49 1.55c.24.26.65.28.92.04"/></svg>
